flaticon/interaction/user-54.svg

<svg xmlns="http://www.w3.org/2000/svg" width="32" height="32" viewBox="0 0 24 24">
    <path d="M 14.398438 13.800781 L 14.398438 23.398438 L 24 23.398438 L 24 13.800781 Z M 23.199219 22.601562 L 15.199219 22.601562 L 15.199219 14.601562 L 18.800781 14.601562 L 18.800781 19.234375 L 17.082031 17.515625 L 16.515625 18.082031 L 19.199219 20.765625 L 21.882812 18.082031 L 21.316406 17.515625 L 19.601562 19.234375 L 19.601562 14.601562 L 23.199219 14.601562 Z M 23.199219 22.601562"/>
    <path d="M 12.308594 13.144531 C 12.304688 13.140625 12.28125 13.113281 12.242188 13.058594 C 12.238281 13.054688 12.238281 13.054688 12.234375 13.050781 C 12.210938 13.023438 12.1875 12.988281 12.160156 12.949219 C 12.160156 12.949219 12.160156 12.949219 12.15625 12.949219 C 12.097656 12.863281 12.023438 12.757812 11.941406 12.628906 C 11.9375 12.625 11.9375 12.621094 11.933594 12.617188 C 11.894531 12.558594 11.855469 12.492188 11.8125 12.421875 C 11.808594 12.414062 11.804688 12.410156 11.800781 12.402344 C 11.710938 12.253906 11.617188 12.082031 11.519531 11.890625 C 11.46875 11.789062 11.417969 11.679688 11.367188 11.570312 C 11.363281 11.554688 11.355469 11.539062 11.347656 11.523438 C 11.324219 11.472656 11.304688 11.421875 11.28125 11.367188 C 11.273438 11.347656 11.265625 11.328125 11.257812 11.304688 C 11.238281 11.253906 11.214844 11.203125 11.191406 11.140625 C 11.152344 11.03125 11.113281 10.917969 11.078125 10.800781 L 11.054688 10.730469 C 11.050781 10.722656 11.050781 10.714844 11.046875 10.707031 C 11.007812 10.578125 10.972656 10.449219 10.941406 10.316406 L 10.90625 10.160156 L 10.769531 10.070312 C 10.539062 9.921875 10.398438 9.671875 10.398438 9.398438 L 10.398438 7.800781 C 10.398438 7.574219 10.496094 7.367188 10.667969 7.210938 L 10.800781 7.089844 L 10.800781 4.457031 L 10.789062 4.449219 C 10.777344 4.160156 10.792969 3.277344 11.4375 2.539062 C 12.101562 1.78125 13.230469 1.398438 14.800781 1.398438 C 16.363281 1.398438 17.492188 1.78125 18.15625 2.53125 C 18.933594 3.410156 18.804688 4.539062 18.804688 4.546875 L 18.800781 7.089844 L 18.933594 7.210938 C 19.105469 7.367188 19.199219 7.574219 19.199219 7.800781 L 19.199219 9.398438 C 19.199219 9.75 18.972656 10.054688 18.632812 10.160156 C 18.421875 10.222656 18.300781 10.449219 18.367188 10.660156 C 18.429688 10.871094 18.65625 10.988281 18.867188 10.925781 C 19.542969 10.714844 20 10.101562 20 9.398438 L 20 7.800781 C 20 7.414062 19.855469 7.042969 19.601562 6.75 L 19.601562 4.621094 C 19.621094 4.402344 19.710938 3.09375 18.761719 2.011719 C 17.941406 1.074219 16.609375 0.601562 14.800781 0.601562 C 12.992188 0.601562 11.660156 1.074219 10.835938 2.011719 C 10.261719 2.667969 10.070312 3.40625 10.011719 3.933594 C 9.324219 3.578125 8.519531 3.398438 7.601562 3.398438 C 3.445312 3.398438 3.203125 6.941406 3.199219 7 L 3.199219 8.832031 C 2.941406 9.113281 2.800781 9.441406 2.800781 9.761719 L 2.800781 11.144531 C 2.800781 11.578125 2.992188 11.980469 3.324219 12.25 C 3.65625 13.496094 4.464844 14.433594 4.78125 14.765625 L 4.78125 15.863281 C 4.78125 16.175781 4.609375 16.464844 4.3125 16.628906 L 1.652344 18.296875 C 0.632812 18.855469 0 19.921875 0 21.082031 L 0 22.601562 L 10.800781 22.601562 C 11.019531 22.601562 11.199219 22.421875 11.199219 22.199219 C 11.199219 21.980469 11.019531 21.800781 10.800781 21.800781 L 6.398438 21.800781 L 6.398438 20.90625 C 6.398438 19.875 6.960938 18.929688 7.863281 18.4375 L 11.433594 16.492188 C 12.027344 16.167969 12.398438 15.542969 12.398438 14.863281 L 12.398438 13.253906 L 12.324219 13.160156 Z M 11.601562 14.863281 C 11.601562 15.25 11.390625 15.605469 11.050781 15.789062 L 9.992188 16.367188 L 9.730469 16.507812 L 7.480469 17.738281 C 6.320312 18.371094 5.601562 19.582031 5.601562 20.90625 L 5.601562 21.800781 L 0.800781 21.800781 L 0.800781 21.082031 C 0.800781 20.214844 1.273438 19.414062 2.054688 18.988281 L 4.71875 17.320312 C 5.25 17.027344 5.582031 16.46875 5.582031 15.863281 L 5.582031 14.425781 L 5.453125 14.308594 C 5.445312 14.296875 4.382812 13.292969 4.066406 11.925781 L 4.03125 11.765625 L 3.894531 11.679688 C 3.710938 11.558594 3.601562 11.359375 3.601562 11.144531 L 3.601562 9.761719 C 3.601562 9.621094 3.699219 9.449219 3.867188 9.292969 L 4 9.175781 L 4 7.023438 C 4.007812 6.910156 4.214844 4.199219 7.601562 4.199219 C 8.558594 4.199219 9.363281 4.421875 10 4.859375 L 10 6.75 C 9.742188 7.042969 9.601562 7.414062 9.601562 7.800781 L 9.601562 9.398438 C 9.601562 9.523438 9.613281 9.640625 9.640625 9.757812 C 9.652344 9.804688 9.671875 9.847656 9.6875 9.890625 C 9.710938 9.957031 9.726562 10.027344 9.757812 10.089844 C 9.757812 10.089844 9.757812 10.09375 9.757812 10.09375 C 9.863281 10.304688 10.011719 10.492188 10.199219 10.644531 C 10.199219 10.652344 10.203125 10.65625 10.207031 10.664062 C 10.230469 10.757812 10.253906 10.847656 10.28125 10.9375 L 10.3125 11.042969 C 10.320312 11.058594 10.328125 11.078125 10.332031 11.097656 C 10.347656 11.140625 10.359375 11.183594 10.375 11.226562 C 10.398438 11.296875 10.421875 11.367188 10.453125 11.445312 C 10.464844 11.480469 10.480469 11.507812 10.492188 11.542969 C 10.523438 11.625 10.558594 11.707031 10.589844 11.785156 C 10.601562 11.804688 10.605469 11.828125 10.617188 11.84375 L 10.636719 11.894531 C 10.648438 11.917969 10.660156 11.941406 10.667969 11.960938 C 10.707031 12.046875 10.746094 12.128906 10.789062 12.210938 C 10.792969 12.222656 10.800781 12.238281 10.804688 12.25 C 10.832031 12.300781 10.855469 12.347656 10.882812 12.394531 C 10.925781 12.476562 10.96875 12.554688 11.007812 12.632812 C 11.03125 12.667969 11.050781 12.703125 11.070312 12.738281 C 11.128906 12.835938 11.183594 12.925781 11.238281 13.011719 C 11.25 13.03125 11.257812 13.046875 11.269531 13.066406 C 11.367188 13.214844 11.453125 13.335938 11.519531 13.433594 C 11.539062 13.457031 11.554688 13.480469 11.570312 13.5 C 11.578125 13.511719 11.59375 13.527344 11.597656 13.539062 L 11.597656 14.863281 Z M 11.601562 14.863281"/>
</svg>

<svg xmlns="http://www.w3.org/2000/svg" width="32" height="32" viewBox="0 0 24 24">
    <path d="M14.398 13.8v9.598H24v-9.597zm8.801 8.802h-8v-8h3.602v4.632l-1.719-1.718-.566.566 2.683 2.684 2.684-2.684-.567-.566-1.714 1.718v-4.632h3.597zm0 0"/>
    <path d="M12.309 13.145a.997.997 0 0 1-.067-.086l-.008-.008c-.023-.028-.046-.063-.074-.102h-.004c-.058-.086-.133-.191-.215-.32-.004-.004-.004-.008-.007-.012-.04-.058-.079-.125-.121-.195l-.012-.02a8.186 8.186 0 0 1-.453-.879c-.024-.05-.043-.101-.067-.156l-.023-.062c-.02-.051-.043-.102-.067-.164a6.926 6.926 0 0 1-.113-.34l-.023-.07c-.004-.008-.004-.016-.008-.024a6.376 6.376 0 0 1-.106-.39l-.035-.157-.136-.09a.798.798 0 0 1-.372-.672V7.801a.79.79 0 0 1 .27-.59l.133-.121V4.457l-.012-.008c-.012-.289.004-1.172.649-1.91.664-.758 1.792-1.14 3.363-1.14 1.562 0 2.691.382 3.355 1.132.778.88.649 2.008.649 2.016L18.8 7.09l.133.12a.786.786 0 0 1 .265.59v1.598a.795.795 0 0 1-.566.762.399.399 0 0 0-.266.5c.063.211.29.328.5.266A1.599 1.599 0 0 0 20 9.398V7.801c0-.387-.145-.758-.398-1.051V4.621c.02-.219.109-1.527-.84-2.61-.82-.937-2.153-1.41-3.961-1.41-1.809 0-3.14.473-3.965 1.41a3.48 3.48 0 0 0-.824 1.923c-.688-.356-1.492-.536-2.41-.536-4.157 0-4.399 3.543-4.403 3.602v1.832c-.258.281-.398.61-.398.93v1.383c0 .433.191.835.523 1.105.332 1.246 1.14 2.184 1.457 2.516v1.097a.874.874 0 0 1-.468.766l-2.66 1.668A3.175 3.175 0 0 0 0 21.082v1.52h10.8a.401.401 0 0 0 0-.801H6.399v-.895a2.81 2.81 0 0 1 1.465-2.468l3.57-1.946c.594-.324.965-.949.965-1.629v-1.61l-.074-.093zm-.707 1.718c0 .387-.211.742-.551.926l-1.059.578-.262.14-2.25 1.231a3.602 3.602 0 0 0-1.878 3.168v.895H.8v-.719c0-.867.472-1.668 1.254-2.094l2.664-1.668c.531-.293.863-.851.863-1.457v-1.437l-.129-.117c-.008-.012-1.07-1.016-1.387-2.383l-.035-.16-.136-.086a.64.64 0 0 1-.293-.535V9.762c0-.14.097-.313.265-.469L4 9.176V7.023C4.008 6.91 4.215 4.2 7.602 4.2c.957 0 1.761.223 2.398.66V6.75a1.586 1.586 0 0 0-.398 1.05v1.598c0 .125.011.243.039.36.011.047.03.09.046.133.024.066.04.136.07.199v.004c.106.21.255.398.442.55 0 .008.004.012.008.02.023.094.047.184.074.274l.031.105a.226.226 0 0 1 .02.055c.016.043.027.086.043.129.023.07.047.14.078.218.012.035.027.063.04.098.03.082.066.164.097.242.012.02.015.043.027.059l.02.05a4.93 4.93 0 0 0 .152.316c.004.013.012.028.016.04.027.05.05.098.078.145.043.082.086.16.125.238a12.23 12.23 0 0 0 .23.379l.032.054c.097.149.183.27.25.368.02.023.035.046.05.066.008.012.024.027.028.04v1.323zm0 0"/>
</svg>
